X: 51
K:Gm
M:4/4
|:Bc| d2 ef gfed| B2 g2 G2 AB| c2 de fedc|A2 f2 F2 Bc|d2 ef g2 cB| cBAG ^F2 A2| G2 D4:|

